src/main/resources/icons/RIcons/icons/changeWorkingDirectory.svg

<svg width="16" height="16" viewBox="0 0 16 16" fill="none" xmlns="http://www.w3.org/2000/svg">
<path fill-rule="evenodd" clip-rule="evenodd" d="M13 7.324L10.696 5.02L7.867 7.848L10.854 10.835L9.59776 12H2V4H6.5H14V8.4L13 7.324Z" fill="#6E6E6E"/>
<path fill-rule="evenodd" clip-rule="evenodd" d="M2 2H6.60007L7.75949 4.00534L2 4V2Z" fill="#6E6E6E"/>
<path fill-rule="evenodd" clip-rule="evenodd" d="M14.702 10.893L14.708 10.898L10.56 15.046L9.5 13.986L12.633 10.853L9.539 7.76001L10.6 6.70001L14.748 10.848L14.703 10.893H14.702Z" fill="#6E6E6E"/>
</svg>

<svg width="16" height="16" viewBox="0 0 16 16" fill="none" xmlns="http://www.w3.org/2000/svg"><rect id="frame" width="16" height="16" fill="none"/><path fill-rule="evenodd" clip-rule="evenodd" d="M13 7.324L10.696 5.02 7.867 7.848l2.987 2.987L9.598 12H2V4h12v4.4l-1-1.076z" fill="#6E6E6E"/><path fill-rule="evenodd" clip-rule="evenodd" d="M2 2h4.6l1.16 2.005L2 4V2z" fill="#6E6E6E"/><path fill-rule="evenodd" clip-rule="evenodd" d="M14.702 10.893l.006.005-4.148 4.148-1.06-1.06 3.133-3.133L9.539 7.76 10.6 6.7l4.148 4.148-.045.045h-.001z" fill="#6E6E6E"/></svg>
